X:194 
T:Sky Without Clouds* (polka), A  
F:file ID: cre.5/194sky_wc
B:CRE5.107 (gan ainm)
N:Repeats added.
L:1/8
M:2/4
Q:120
R:polka
K:D
G>A Be/f/|gf ed|FA c>d|ed c/B/A/G/|
G>A Be/f/|gf fe/d/|ec A>F|GB G2:|
|:gb gb|gb ba/g/|fa fa|fa ae/f/|
gb gb|gb ba/g/|fa ef|1gf g2:|\
[2 gfg2-|g4|]

%%%

